PhoneBookClient/src/assets/images/contacts/contact.svg

<?xml version="1.0" encoding="utf-8"?>
<svg width="268.22px" height="214.16px" viewBox="0 0 268.22 214.16" version="1.1" xmlns:xlink="http://www.w3.org/1999/xlink" xmlns="http://www.w3.org/2000/svg">
  <defs>
    <path d="M268.22 0L268.22 0L268.22 214.16L0 214.16L0 0L268.22 0Z" id="path_1" />
    <clipPath id="clip_1">
      <use xlink:href="#path_1" clip-rule="evenodd" fill-rule="evenodd" />
    </clipPath>
  </defs>
  <g id="contact (1)">
    <path d="M268.22 0L268.22 0L268.22 214.16L0 214.16L0 0L268.22 0Z" id="contact-(1)" fill="none" stroke="none" />
    <g id="Calque_2" transform="translate(-0.0018699169 -0.0040733814)" clip-path="url(#clip_1)">
      <g id="Calque_1-2">
        <path d="M256.002 157.584C251.732 153.894 247.782 150.224 243.562 146.914C240.922 144.854 242.362 142.914 243.132 140.914C252.072 117.684 251.562 94.6041 241.652 71.8441C225.752 35.3241 187.712 14.3441 147.582 19.7141C109.002 24.8341 77.6519 55.8341 71.8419 94.4741C69.4919 110.144 70.8419 125.414 76.9219 140.114C78.3519 143.614 78.1519 145.884 75.0119 148.464C56.8719 163.404 38.9419 178.604 20.8619 193.624C14.8619 198.624 7.44187 198.124 2.96187 192.724C-1.64813 187.164 -0.85813 180.184 5.20187 175.004C20.8519 161.664 36.6419 148.474 52.2019 135.004C53.5519 133.824 54.1519 130.724 53.7819 128.764C50.3119 110.244 50.9019 91.8941 57.2719 74.1841C72.0519 33.0041 101.182 7.69407 144.462 1.25407C215.002 -9.22593 273.872 47.3841 267.792 118.504C266.612 132.304 261.452 149.714 256.002 157.584L256.002 157.584Z" id="Shape" fill="#4B38B3" stroke="none" />
        <path d="M99.2019 205.004C99.2183 210.051 103.305 214.138 108.352 214.154L218.002 214.154C223.047 214.138 227.131 210.049 227.142 205.004L227.142 205.004C227.142 192.885 222.327 181.262 213.756 172.693C205.185 164.124 193.561 159.311 181.442 159.314L144.842 159.314C119.628 159.342 99.2019 179.79 99.2019 205.004L99.2019 205.004Z" id="Shape" fill="#F0801D" stroke="none" />
        <path d="M126.622 109.344C126.622 89.147 142.995 72.7741 163.192 72.7741C183.389 72.7741 199.762 89.147 199.762 109.344C199.762 129.541 183.389 145.914 163.192 145.914C142.995 145.914 126.622 129.541 126.622 109.344Z" id="Circle" fill="#F0801D" fill-rule="evenodd" stroke="none" />
      </g>
    </g>
  </g>
</svg>

<svg xmlns="http://www.w3.org/2000/svg" viewBox="0 0 268.22 214.16"><defs><style>.cls-1{fill:#2c59a4;}.cls-2{fill:#f0801d;}</style></defs><g id="Calque_2" data-name="Calque 2"><g id="Calque_1-2" data-name="Calque 1"><path class="cls-1" d="M256,157.58c-4.27-3.69-8.22-7.36-12.44-10.67-2.64-2.06-1.2-4-.43-6,8.94-23.23,8.43-46.31-1.48-69.07-15.9-36.52-53.94-57.5-94.07-52.13C109,24.83,77.65,55.83,71.84,94.47c-2.35,15.67-1,30.94,5.08,45.64,1.43,3.5,1.23,5.77-1.91,8.35C56.87,163.4,38.94,178.6,20.86,193.62c-6,5-13.42,4.5-17.9-.9C-1.65,187.16-.86,180.18,5.2,175c15.65-13.34,31.44-26.53,47-40,1.35-1.18,1.95-4.28,1.58-6.24-3.47-18.52-2.88-36.87,3.49-54.58C72.05,33,101.18,7.69,144.46,1.25,215-9.23,273.87,47.38,267.79,118.5,266.61,132.3,261.45,149.71,256,157.58Z"/><path class="cls-2" d="M99.2,205a9.18,9.18,0,0,0,9.15,9.15H218a9.17,9.17,0,0,0,9.14-9.15h0a45.69,45.69,0,0,0-45.7-45.69h-36.6A45.69,45.69,0,0,0,99.2,205Z"/><circle class="cls-2" cx="163.19" cy="109.34" r="36.57"/></g></g></svg>
